X: 1
T: Gilsaw
O: Pete McMahan video
R: reel
Z: 2020 John Chambers <jc:trillian.mit.edu>
S: https://fiddletunes.net/Gilsaw.jpg 2020-5
M: C|
L: 1/8
K: D
"A"|:\
"D"FAA2 ABAA | FAA2 A2EF | "G"G2BG DEGA | BABc BAGD |\
"D"FAA2 ABAA | FAAB A2a^g | "A"faed cdea | "D"fdf2 ef3 :|
"B"|:\
"D"ef-fg fedA | "A"cee2 e2c2 | ce2f e2cA | BAGB "D"A2d2 |\
"D"fef^g afed | "A"cdef e2a^g | faed cdea | "D"fdf2 ef3 :|
